X: 1
T: Miss Monaghan
M: 4/4
L: 1/8
Z: John Chambers, from several other versions
R: reel
K: D
|:\
"D"D2F{E}D FAAd | "G"~B2BA "A7"FABc |\
[1,3 "D"d2{c}dB "Bm"ABde | "Em"fede "A7"fee2 :\
[2,4 "D"d2{c}dB ABdB | "A7"AFEG "D"FDD2 :|
|:\
"D"faab afd{e}f | "Em"gefd "A7"edBc |\
[1,3 "D"d2{c}dB "Bm"ABde | "Em"fede "A7"fee2 :|\
[2,4 "D"d2{c}dB ABdB | "A7"AFEG "D"FDD2 :|
